docs/.gitbook/assets/icon-building-16@dark.svg

<svg width="32" height="32" viewBox="0 0 16 16" fill="none" xmlns="http://www.w3.org/2000/svg">
<rect x="0" y="0" width="16" height="16" fill="#181c1f"/>
<path fill-rule="evenodd" clip-rule="evenodd" d="M1 1.75C1 1.33579 1.33579 1 1.75 1H8.75001C9.16422 1 9.50001 1.33579 9.50001 1.75V4H14.25C14.6642 4 15 4.33579 15 4.75V14.25C15 14.6642 14.6642 15 14.25 15H8.75001H1.75C1.33579 15 1 14.6642 1 14.25V1.75ZM9.50001 5.5V13.5H13.5V5.5H9.50001ZM8.00001 13.5V4.75V2.5H2.5V13.5H8.00001ZM4.25 3.5C4.66421 3.5 5 3.83579 5 4.25V4.75C5 5.16421 4.66421 5.5 4.25 5.5C3.83579 5.5 3.5 5.16421 3.5 4.75V4.25C3.5 3.83579 3.83579 3.5 4.25 3.5ZM6.25 3.5C6.66421 3.5 7 3.83579 7 4.25V4.75C7 5.16421 6.66421 5.5 6.25 5.5C5.83579 5.5 5.5 5.16421 5.5 4.75V4.25C5.5 3.83579 5.83579 3.5 6.25 3.5ZM4.25 7C4.66421 7 5 7.33579 5 7.75V8.25C5 8.66421 4.66421 9 4.25 9C3.83579 9 3.5 8.66421 3.5 8.25V7.75C3.5 7.33579 3.83579 7 4.25 7ZM6.25 7C6.66421 7 7 7.33579 7 7.75V8.25C7 8.66421 6.66421 9 6.25 9C5.83579 9 5.5 8.66421 5.5 8.25V7.75C5.5 7.33579 5.83579 7 6.25 7ZM11.5 7C11.9142 7 12.25 7.33579 12.25 7.75V8.25C12.25 8.66421 11.9142 9 11.5 9C11.0858 9 10.75 8.66421 10.75 8.25V7.75C10.75 7.33579 11.0858 7 11.5 7ZM11.5 10C11.9142 10 12.25 10.3358 12.25 10.75V11.25C12.25 11.6642 11.9142 12 11.5 12C11.0858 12 10.75 11.6642 10.75 11.25V10.75C10.75 10.3358 11.0858 10 11.5 10ZM4.25 10.5C4.66421 10.5 5 10.8358 5 11.25V11.75C5 12.1642 4.66421 12.5 4.25 12.5C3.83579 12.5 3.5 12.1642 3.5 11.75V11.25C3.5 10.8358 3.83579 10.5 4.25 10.5ZM6.25 10.5C6.66421 10.5 7 10.8358 7 11.25V11.75C7 12.1642 6.66421 12.5 6.25 12.5C5.83579 12.5 5.5 12.1642 5.5 11.75V11.25C5.5 10.8358 5.83579 10.5 6.25 10.5Z" fill="#fff"/>
</svg>

<svg xmlns="http://www.w3.org/2000/svg" width="32" height="32" fill="none" viewBox="0 0 16 16"><path fill="#181c1f" d="M0 0h16v16H0z"/><path fill="#fff" fill-rule="evenodd" d="M1 1.75A.75.75 0 0 1 1.75 1h7a.75.75 0 0 1 .75.75V4h4.75a.75.75 0 0 1 .75.75v9.5a.75.75 0 0 1-.75.75H1.75a.75.75 0 0 1-.75-.75zM9.5 5.5v8h4v-8zm-1.5 8v-11H2.5v11zm-3.75-10a.75.75 0 0 1 .75.75v.5a.75.75 0 0 1-1.5 0v-.5a.75.75 0 0 1 .75-.75m2 0a.75.75 0 0 1 .75.75v.5a.75.75 0 0 1-1.5 0v-.5a.75.75 0 0 1 .75-.75m-2 3.5a.75.75 0 0 1 .75.75v.5a.75.75 0 0 1-1.5 0v-.5A.75.75 0 0 1 4.25 7m2 0a.75.75 0 0 1 .75.75v.5a.75.75 0 0 1-1.5 0v-.5A.75.75 0 0 1 6.25 7m5.25 0a.75.75 0 0 1 .75.75v.5a.75.75 0 0 1-1.5 0v-.5A.75.75 0 0 1 11.5 7m0 3a.75.75 0 0 1 .75.75v.5a.75.75 0 0 1-1.5 0v-.5a.75.75 0 0 1 .75-.75m-7.25.5a.75.75 0 0 1 .75.75v.5a.75.75 0 0 1-1.5 0v-.5a.75.75 0 0 1 .75-.75m2 0a.75.75 0 0 1 .75.75v.5a.75.75 0 0 1-1.5 0v-.5a.75.75 0 0 1 .75-.75" clip-rule="evenodd"/></svg>
